X:39
T: ROSEN AUF DEN WEG GESTREUT
N: F0115
O: Europa, Mitteleuropa, Deutschland
R: Moral - Lied, Vergaenglichkeit
M: 2/4
L: 1/16
K: A
 | A2E2E2DC | F2F2F2z2
G3ABcdB | A3cA2z2
A2E2E2DC | F2F2F2z2
G3ABcdB | A3cA2z2
c2BAB2e2 | A2GFG2z2
c3^deBcA | G2F2E4
A2E2E2DC | F2F2F2z2
G3ABcdB | A3cA4

